src/4-icons/left.svg

<svg width="260" height="260" viewBox="0 0 260 260" fill="none" xmlns="http://www.w3.org/2000/svg">
<g opacity="0.9">
<path d="M201.438 130.041C201.438 133.907 198.303 137.041 194.438 137.041H81.9386L123.989 179.091C126.722 181.825 126.722 186.257 123.989 188.991C121.255 191.724 116.823 191.724 114.089 188.991L60.3492 135.251C58.9493 133.851 58.2663 132.005 58.3001 130.171C58.2663 128.336 58.9493 126.491 60.3492 125.091L114.089 71.3512C116.823 68.6175 121.255 68.6175 123.989 71.3512C126.722 74.0849 126.722 78.517 123.989 81.2507L82.1985 123.041H194.438C198.303 123.041 201.438 126.175 201.438 130.041Z" fill="black"/>
<path fill-rule="evenodd" clip-rule="evenodd" d="M0 130C0 201.797 58.203 260 130 260C201.797 260 260 201.797 260 130C260 58.203 201.797 0 130 0C58.203 0 0 58.203 0 130ZM14 130C14 194.065 65.935 246 130 246C194.065 246 246 194.065 246 130C246 65.935 194.065 14 130 14C65.935 14 14 65.935 14 130Z" fill="black"/>
</g>
</svg>

<svg width="260" height="260" viewBox="0 0 260 260" fill="none" xmlns="http://www.w3.org/2000/svg"><g opacity=".9" fill="#000"><path d="M201.438 130.041a7 7 0 0 1-7 7h-112.5l42.051 42.05a7.002 7.002 0 0 1 0 9.9 7.002 7.002 0 0 1-9.9 0l-53.74-53.74a6.981 6.981 0 0 1-2.049-5.08 6.98 6.98 0 0 1 2.05-5.08l53.739-53.74a7 7 0 0 1 9.9 9.9l-41.79 41.79h112.239a7 7 0 0 1 7 7Z"/><path fill-rule="evenodd" clip-rule="evenodd" d="M0 130c0 71.797 58.203 130 130 130s130-58.203 130-130S201.797 0 130 0 0 58.203 0 130Zm14 0c0 64.065 51.935 116 116 116s116-51.935 116-116S194.065 14 130 14 14 65.935 14 130Z"/></g></svg>
